X: 30
T:Bluemont Waltz
C:W-56
K:A
M:3/4
L:1/4
A/B/|"A"c2e/c/ |"E"B>d c/B/ |"F#m"A/ F3/2 F/G/ | F2 E |
"D"D>E F/D/ | "A"EcB/A/ | "Bm"B2 B/c/ | "E"B2 A/B/|
"A"c2e/c/ |"E"B>d c/B/ |"F#m"A/ F3/2 F/G/ | F2 E |
"D"D>E F/D/ | "E"EcB |"A"A3 |"A7"cd e/A/|
|:"D"f2f | "E"e>f e/d/|"A"d<c c/d/ | "F#m"c2B |
 "D"A2A | "E"B2A/B/|"A"c2c/d/|"F#m"cBA|
"Bm"B2 B/c/|"E"B2A/F/ | "A"E<AA/E/ |"F#m"F<A (3E/F/E/|
"D"D>E F/D/ | "E"EcB |"A"A3 | [1 "A7"cd e/A/ :| [2"A"A2|]

